public/images/media/logo-highsnobiety.svg

<?xml version="1.0" encoding="UTF-8"?>
<svg width="160px" height="60px" viewBox="0 0 160 60" version="1.1" xmlns="http://www.w3.org/2000/svg" xmlns:xlink="http://www.w3.org/1999/xlink">
    <!-- Generator: Sketch 42 (36781) - http://www.bohemiancoding.com/sketch -->
    <title>Artboard 2</title>
    <desc>Created with Sketch.</desc>
    <defs></defs>
    <g id="HOME" stroke="none" stroke-width="1" fill="none" fill-rule="evenodd">
        <g id="Artboard-2" fill-rule="nonzero" fill="#0E2240">
            <g id="Volata_home_highsnobiety" transform="translate(1.000000, 24.000000)">
                <g id="Layer_1">
                    <g id="HOME">
                        <g id="Artboard">
                            <g id="Highsnobiety">
                                <g id="Layer_1">
                                    <g id="Group">
                                        <path d="M10.2406414,11.6550188 L8.48625802,11.6550188 L8.48625802,11.267423 C8.97358673,11.1705241 9.16851823,10.7829283 9.16851823,10.3953326 L9.16851823,6.13177927 L2.83324491,6.13177927 L2.83324491,10.3953326 C2.83324491,10.6860294 3.02817641,11.0736252 3.51550512,11.267423 L3.51550512,11.6550188 L0.00673836395,11.6550188 L0.00673836395,11.267423 C0.49406708,11.1705241 0.688998566,10.6860294 0.688998566,10.3953326 L0.688998566,1.57752916 C0.688998566,1.28683234 0.49406708,0.899236587 0.00673836395,0.70543871 L0.00673836395,0.317842955 L3.51550512,0.317842955 L3.51550512,0.70543871 C3.02817641,0.899236587 2.83324491,1.28683234 2.83324491,1.57752916 L2.83324491,5.16278989 L9.26598397,5.16278989 L9.26598397,1.57752916 C9.26598397,1.1899334 9.07105247,0.899236587 8.58372376,0.70543871 L8.58372376,0.317842955 L11.9950248,0.317842955 L11.9950248,0.70543871 C11.5076961,0.899236587 11.3127646,1.28683234 11.3127646,1.57752916 L11.3127646,10.3953326 C11.3127646,10.6860294 11.5076961,11.0736252 11.9950248,11.267423 L11.9950248,11.6550188 C11.6051618,11.7519177 10.5330386,11.6550188 10.2406414,11.6550188 L10.2406414,11.6550188 Z M18.6226953,11.6550188 L16.5759148,11.6550188 L16.5759148,11.267423 C17.2581749,11.0736252 17.5505722,10.8798273 17.5505722,10.3953326 L17.5505722,1.57752916 C17.5505722,1.1899334 17.3556406,0.899236587 16.5759148,0.70543871 L16.5759148,0.317842955 L20.5720101,0.317842955 L20.5720101,0.70543871 C19.88975,0.899236587 19.4998869,1.1899334 19.4998869,1.57752916 L19.4998869,10.3953326 C19.4998869,10.7829283 19.6948185,11.0736252 20.5720101,11.267423 L20.5720101,11.6550188 C20.279613,11.7519177 18.8176268,11.6550188 18.6226953,11.6550188 Z M35.3868031,7.77906123 L35.3868031,11.267423 C35.3868031,11.267423 34.8020087,11.364322 33.8273513,11.5581198 C33.3400225,11.7519177 32.0729679,11.8488167 31.0008447,11.8488167 C27.1996807,11.8488167 24.3731741,9.71704 24.3731741,5.9379814 C24.3731741,2.35272067 27.1022149,0.124045078 30.9033789,0.124045078 C31.9755021,0.124045078 32.6577624,0.317842955 33.534954,0.511640832 C34.0222828,0.608539771 34.2172142,0.608539771 34.5096114,0.608539771 L34.6070772,2.74031641 L34.2172142,2.74031641 C33.6324198,1.67442809 32.2678994,1.09303446 31.0008447,1.09303446 C28.3692696,1.09303446 26.5174206,3.22481111 26.5174206,5.84108245 C26.5174206,8.84494956 28.2718039,11.0736252 31.1957762,11.0736252 C32.0729679,11.0736252 33.0476253,10.5891305 33.3400225,10.3953326 L33.3400225,7.77906123 C33.3400225,7.48836442 33.2425568,7.10076866 32.2678994,6.90697077 L32.2678994,6.4224761 L35.7766661,6.4224761 L35.7766661,6.81007184 C35.5817346,7.00386972 35.3868031,7.48836442 35.3868031,7.77906123 Z M50.5914591,11.6550188 L48.8370756,11.6550188 L48.8370756,11.267423 C49.3244044,11.1705241 49.5193359,10.7829283 49.5193359,10.3953326 L49.5193359,6.13177927 L43.0865968,6.13177927 L43.0865968,10.3953326 C43.0865968,10.6860294 43.2815283,11.0736252 43.7688571,11.267423 L43.7688571,11.6550188 L40.2600902,11.6550188 L40.2600902,11.267423 C40.747419,11.1705241 40.9423505,10.6860294 40.9423505,10.3953326 L40.9423505,1.57752916 C40.9423505,1.28683234 40.747419,0.899236587 40.2600902,0.70543871 L40.2600902,0.317842955 L43.7688571,0.317842955 L43.7688571,0.70543871 C43.2815283,0.899236587 43.0865968,1.28683234 43.0865968,1.57752916 L43.0865968,5.16278989 L49.4218702,5.16278989 L49.4218702,1.57752916 C49.4218702,1.1899334 49.2269387,0.899236587 48.73961,0.70543871 L48.73961,0.317842955 L52.150911,0.317842955 L52.150911,0.70543871 C51.6635822,0.899236587 51.4686507,1.28683234 51.4686507,1.57752916 L51.4686507,10.3953326 C51.4686507,10.6860294 51.6635822,11.0736252 52.150911,11.267423 L52.150911,11.6550188 C51.9559795,11.7519177 50.7863906,11.6550188 50.5914591,11.6550188 L50.5914591,11.6550188 Z M60.1431019,11.9457156 C59.0709787,11.9457156 57.9988556,11.7519177 56.8292667,11.364322 L56.7318009,9.2325453 L57.2191297,9.2325453 C57.414061,9.81393895 57.8039241,10.2984336 58.1937871,10.4922315 C58.6811157,10.7829283 59.4608417,10.9767262 60.1431019,10.9767262 C61.4101565,10.9767262 62.4822797,10.4922315 62.4822797,9.32944425 C62.4822797,8.74805062 62.2873483,8.16665698 61.8000196,7.87596017 C60.7278964,7.1976676 59.4608417,6.81007184 58.2912528,6.22867821 C57.2191297,5.74418352 56.4394036,4.96899201 56.4394036,3.32171006 C56.4394036,0.996135526 58.4861843,0.0271461388 60.7278964,0.0271461388 C61.7025538,0.0271461388 62.6772112,0.220944016 63.8468001,0.220944016 L63.9442659,2.54651855 L63.5544029,2.54651855 C63.16454,1.48063022 61.8974853,0.899236587 60.7278964,0.899236587 C59.4608417,0.899236587 58.4861843,1.57752916 58.4861843,2.64341748 C58.4861843,3.41860899 58.8760472,4.00000262 59.5583075,4.29069943 C60.6304307,4.87209308 62.0924168,5.35658776 63.16454,5.9379814 C64.0417316,6.4224761 64.4315947,7.10076866 64.4315947,8.26355593 C64.2366631,10.6860294 62.4822797,11.9457156 60.1431019,11.9457156 Z M79.831182,1.57752916 L79.831182,11.8488167 L79.2463876,11.8488167 C79.2463876,11.8488167 78.1742645,11.0736252 77.6869357,10.5891305 L70.9617993,2.9341143 L70.9617993,10.3953326 C70.9617993,10.8798273 71.1567309,11.0736252 71.9364569,11.267423 L71.9364569,11.6550188 L68.817553,11.6550188 L68.817553,11.267423 C69.4998133,11.0736252 69.8896762,10.8798273 69.8896762,10.3953326 L69.8896762,1.77132704 C69.8896762,1.1899334 69.6947447,0.70543871 69.2074161,0.608539771 L69.2074161,0.317842955 L71.1567309,0.317842955 L78.7590589,8.94184849 L78.7590589,1.67442809 C78.7590589,1.28683234 78.5641273,0.996135526 77.7844015,0.802337647 L77.7844015,0.317842955 L80.9033052,0.317842955 L80.9033052,0.70543871 C80.0261135,0.899236587 79.831182,1.09303446 79.831182,1.57752916 L79.831182,1.57752916 Z M90.1625509,11.9457156 C86.4588526,11.9457156 84.1196748,9.2325453 84.1196748,6.13177927 C84.1196748,3.03101324 86.4588526,0.220944016 90.1625509,0.220944016 C93.7687833,0.220944016 96.2054269,3.03101324 96.2054269,6.13177927 C96.2054269,9.2325453 93.7687833,11.9457156 90.1625509,11.9457156 Z M90.1625509,0.996135526 C87.43351,0.996135526 86.2639211,3.51550792 86.2639211,5.9379814 C86.2639211,8.55425274 87.43351,10.8798273 90.1625509,10.8798273 C92.8915917,10.8798273 94.0611806,8.55425274 94.0611806,5.9379814 C93.9637149,3.41860899 92.8915917,0.996135526 90.1625509,0.996135526 Z M103.612823,11.7519177 C103.028029,11.7519177 101.663508,11.6550188 101.078714,11.6550188 L99.2268649,11.6550188 L99.2268649,11.267423 C99.8116594,11.1705241 100.104057,10.6860294 100.104057,10.2015347 L100.104057,1.48063022 C100.104057,1.1899334 99.9091252,0.802337647 99.2268649,0.608539771 L99.2268649,0.220944016 L101.078714,0.220944016 C101.566043,0.220944016 102.5407,0.124045078 103.22296,0.124045078 C105.367207,0.124045078 107.316522,0.802337647 107.316522,3.12791218 C107.316522,4.29069943 106.634261,5.25968882 105.562138,5.74418352 C107.024124,6.22867821 107.901316,7.39146547 107.901316,8.74805062 C107.901316,10.9767262 105.659604,11.7519177 103.612823,11.7519177 Z M102.735632,0.996135526 C102.443235,0.996135526 102.345769,0.996135526 102.053371,1.09303446 L102.053371,5.16278989 L102.735632,5.16278989 C104.197618,5.16278989 104.977344,4.58139626 104.977344,3.03101324 C105.07481,1.86822597 104.295084,0.996135526 102.735632,0.996135526 Z M103.320426,6.13177927 L102.053371,6.13177927 L102.053371,10.6860294 C102.345769,10.7829283 102.735632,10.7829283 103.22296,10.7829283 C104.879878,10.7829283 105.75707,9.91083788 105.75707,8.45735379 C105.75707,7.00386972 104.587481,6.13177927 103.320426,6.13177927 Z M114.334055,11.6550188 L112.287275,11.6550188 L112.287275,11.267423 C112.969535,11.0736252 113.261932,10.8798273 113.261932,10.3953326 L113.261932,1.57752916 C113.261932,1.1899334 113.067,0.899236587 112.287275,0.70543871 L112.287275,0.317842955 L116.28337,0.317842955 L116.28337,0.70543871 C115.60111,0.899236587 115.308713,1.1899334 115.308713,1.57752916 L115.308713,10.3953326 C115.308713,10.7829283 115.503644,11.0736252 116.28337,11.267423 L116.28337,11.6550188 C115.893507,11.7519177 114.626452,11.6550188 114.334055,11.6550188 Z M129.538711,11.7519177 C128.466588,11.6550188 127.784328,11.6550188 126.517273,11.6550188 L121.156657,11.6550188 L121.156657,11.267423 C121.741452,11.1705241 122.033849,10.6860294 122.033849,10.2015347 L122.033849,1.48063022 C122.033849,1.1899334 121.838917,0.802337647 121.156657,0.608539771 L121.156657,0.220944016 L128.271656,0.220944016 C128.466588,0.220944016 128.758985,0.220944016 128.953917,0.0271461388 L129.34378,0.0271461388 L129.246314,2.25582173 L128.856451,2.25582173 C128.661519,1.57752916 127.979259,1.09303446 127.102068,1.09303446 L123.885698,1.09303446 L123.885698,4.96899201 L126.712205,4.96899201 C127.199533,4.96899201 127.394465,4.77519413 127.784328,4.29069943 L128.271656,4.29069943 C128.174191,4.58139626 128.174191,5.16278989 128.174191,5.4534867 L128.174191,6.61627396 L127.784328,6.61627396 C127.589396,6.22867821 127.199533,5.9379814 126.712205,5.9379814 L123.885698,5.9379814 L123.885698,10.3953326 L127.004602,10.3953326 C128.076725,10.3953326 128.758985,10.0077368 129.051382,9.32944425 L129.538711,9.42634318 L129.538711,11.7519177 Z M143.866175,2.54651855 L143.378847,2.54651855 C143.183915,1.67442809 142.696586,1.28683234 141.916861,1.28683234 L139.577683,1.28683234 L139.577683,10.3953326 C139.577683,10.6860294 139.87008,11.0736252 140.649806,11.267423 L140.649806,11.7519177 L136.65371,11.7519177 L136.65371,11.364322 C137.33597,11.267423 137.725833,10.7829283 137.725833,10.4922315 L137.725833,1.38373128 L135.386656,1.38373128 C134.704396,1.38373128 134.217067,1.86822597 133.924669,2.64341748 L133.534806,2.64341748 L133.437341,0.317842955 C134.314533,0.414741893 134.996793,0.511640832 138.797957,0.511640832 C142.501655,0.511640832 143.281381,0.414741893 143.963641,0.317842955 L143.866175,2.54651855 L143.866175,2.54651855 Z M156.34179,2.35272067 L153.710215,6.32557715 L153.710215,10.2984336 C153.710215,10.5891305 153.905147,10.9767262 154.587407,11.1705241 L154.587407,11.5581198 L150.981175,11.5581198 L150.981175,11.1705241 C151.663435,11.0736252 151.858366,10.5891305 151.858366,10.2984336 L151.858366,6.32557715 L148.836928,1.86822597 C148.447065,1.28683234 147.764805,0.70543871 147.277476,0.608539771 L147.277476,0.317842955 L150.688777,0.317842955 L150.688777,0.70543871 C150.493846,0.70543871 150.39638,0.899236587 150.39638,0.996135526 C150.39638,1.09303446 150.493846,1.38373128 150.591312,1.67442809 L152.930489,5.25968882 L155.269667,1.67442809 C155.464599,1.38373128 155.562065,1.09303446 155.562065,0.996135526 C155.562065,0.899236587 155.464599,0.802337647 155.074736,0.70543871 L155.074736,0.317842955 L157.998708,0.317842955 L157.998708,0.70543871 C157.413914,0.996135526 156.829119,1.57752916 156.34179,2.35272067 L156.34179,2.35272067 Z" id="Shape"></path>
                                    </g>
                                </g>
                            </g>
                        </g>
                    </g>
                </g>
            </g>
        </g>
    </g>
</svg>

<svg width="160" height="60" xmlns="http://www.w3.org/2000/svg"><title>Artboard 2</title><g id="HOME" fill="none" fill-rule="evenodd"><g id="Artboard-2" fill-rule="nonzero" fill="#0E2240"><g id="Volata_home_highsnobiety" transform="translate(1 24)"><g id="Layer_1"><g id="HOME"><g id="Artboard"><g id="Highsnobiety"><g id="Layer_1"><g id="Group"><path d="M10.24 11.655H8.487v-.388c.488-.096.683-.484.683-.872V6.132H2.833v4.263c0 .291.195.679.683.872v.388H.006v-.388c.488-.096.683-.581.683-.872V1.578c0-.291-.195-.679-.682-.873V.318h3.509v.387c-.488.194-.683.582-.683.873v3.585h6.433V1.578c0-.388-.195-.679-.682-.873V.318h3.411v.387c-.487.194-.682.582-.682.873v8.817c0 .291.195.679.682.872v.388c-.39.097-1.462 0-1.754 0zm8.383 0h-2.047v-.388c.682-.193.975-.387.975-.872V1.578c0-.388-.195-.679-.975-.873V.318h3.996v.387C19.89.9 19.5 1.19 19.5 1.578v8.817c0 .388.195.679 1.072.872v.388c-.292.097-1.754 0-1.95 0zm16.764-3.876v3.488s-.585.097-1.56.291c-.487.194-1.754.29-2.826.29-3.801 0-6.628-2.131-6.628-5.91 0-3.585 2.73-5.814 6.53-5.814 1.073 0 1.755.194 2.632.388.487.097.682.097.975.097l.097 2.131h-.39c-.585-1.066-1.95-1.647-3.216-1.647-2.632 0-4.484 2.132-4.484 4.748 0 3.004 1.755 5.233 4.679 5.233.877 0 1.852-.485 2.144-.679V7.78c0-.29-.097-.678-1.072-.872v-.485h3.509v.388c-.195.194-.39.678-.39.97zm15.204 3.876h-1.754v-.388c.487-.096.682-.484.682-.872V6.132h-6.432v4.263c0 .291.195.679.682.872v.388H40.26v-.388c.487-.096.682-.581.682-.872V1.578c0-.291-.195-.679-.682-.873V.318h3.509v.387c-.487.194-.682.582-.682.873v3.585h6.335V1.578c0-.388-.195-.679-.682-.873V.318h3.41v.387c-.486.194-.681.582-.681.873v8.817c0 .291.195.679.682.872v.388c-.195.097-1.365 0-1.56 0zm9.552.29c-1.072 0-2.144-.193-3.314-.58l-.097-2.132h.487c.195.58.585 1.065.975 1.26.487.29 1.267.484 1.95.484 1.266 0 2.338-.485 2.338-1.648 0-.58-.195-1.162-.682-1.453-1.072-.678-2.34-1.066-3.509-1.647-1.072-.485-1.852-1.26-1.852-2.907 0-2.326 2.047-3.295 4.289-3.295.975 0 1.95.194 3.119.194l.097 2.326h-.39C63.164 1.48 61.897.899 60.728.899c-1.267 0-2.242.679-2.242 1.744 0 .776.39 1.357 1.072 1.648 1.072.581 2.534 1.066 3.607 1.647.877.484 1.267 1.163 1.267 2.326-.195 2.422-1.95 3.682-4.289 3.682zM79.831 1.579v10.27h-.585s-1.072-.774-1.56-1.259l-6.724-7.655v7.461c0 .485.195.679.974.872v.388h-3.118v-.388c.682-.193 1.072-.387 1.072-.872V1.771c0-.581-.195-1.066-.683-1.162V.318h1.95l7.602 8.624V1.674c0-.387-.195-.678-.975-.872V.318h3.12v.387c-.878.194-1.073.388-1.073.873zm10.332 10.368c-3.704 0-6.043-2.713-6.043-5.814S86.459.22 90.163.22c3.606 0 6.042 2.81 6.042 5.91 0 3.102-2.436 5.815-6.042 5.815zm0-10.95c-2.73 0-3.9 2.52-3.9 4.942 0 2.616 1.17 4.942 3.9 4.942 2.729 0 3.898-2.326 3.898-4.942-.097-2.52-1.17-4.942-3.898-4.942zm13.45 10.756c-.585 0-1.95-.097-2.534-.097h-1.852v-.388c.585-.096.877-.581.877-1.065V1.48c0-.291-.195-.679-.877-.872V.22h1.852c.487 0 1.462-.097 2.144-.097 2.144 0 4.094.678 4.094 3.004 0 1.163-.683 2.132-1.755 2.616 1.462.485 2.34 1.647 2.34 3.004 0 2.229-2.242 3.004-4.29 3.004zM102.736.996c-.293 0-.39 0-.683.097v4.07h.683c1.462 0 2.241-.582 2.241-2.132.098-1.163-.682-2.035-2.241-2.035zm.584 5.136h-1.267v4.554c.293.097.683.097 1.17.097 1.657 0 2.534-.872 2.534-2.326 0-1.453-1.17-2.325-2.437-2.325zm11.014 5.523h-2.047v-.388c.683-.193.975-.387.975-.872V1.578c0-.388-.195-.679-.975-.873V.318h3.996v.387c-.682.194-.974.485-.974.873v8.817c0 .388.195.679.974.872v.388c-.39.097-1.657 0-1.949 0zm15.205.097c-1.072-.097-1.755-.097-3.022-.097h-5.36v-.388c.584-.096.877-.581.877-1.065V1.48c0-.291-.195-.679-.877-.872V.22h7.115c.195 0 .487 0 .682-.194h.39l-.098 2.229h-.39c-.194-.678-.877-1.163-1.754-1.163h-3.216v3.876h2.826c.488 0 .682-.194 1.072-.678h.488c-.098.29-.098.872-.098 1.162v1.163h-.39a1.199 1.199 0 0 0-1.072-.678h-2.826v4.457h3.119c1.072 0 1.754-.387 2.046-1.066l.488.097v2.326zm14.327-9.205h-.487c-.195-.873-.682-1.26-1.462-1.26h-2.34v9.108c0 .291.293.679 1.073.872v.485h-3.996v-.388c.682-.097 1.072-.581 1.072-.872V1.384h-2.34c-.682 0-1.169.484-1.461 1.26h-.39l-.098-2.326c.878.097 1.56.194 5.361.194 3.704 0 4.483-.097 5.166-.194l-.098 2.229zm12.476-.194l-2.632 3.973v3.972c0 .291.195.679.877.873v.387h-3.606v-.387c.682-.097.877-.582.877-.873V6.326l-3.021-4.458c-.39-.581-1.072-1.163-1.56-1.26v-.29h3.412v.387c-.195 0-.293.194-.293.291 0 .097.098.388.195.678l2.34 3.586 2.339-3.586c.195-.29.292-.581.292-.678 0-.097-.097-.194-.487-.29V.317h2.924v.387c-.585.291-1.17.873-1.657 1.648z" id="Shape"/></g></g></g></g></g></g></g></g></g></svg>
